X:4
T:Dram: Kvarten
C:anon.
O:Norway
S:Frank Nordberg <frnordbe@online.no> abcusers 2001-9-8
M:3/4
L:1/8
Q:1/4=3D80
K:Gm
z>D "D7"^F>G|"D7"A2 c>B "Eb"G>G|"Bb"F2 D>D "D7"C>A,|
w: \AA! kvar-ten, kvar-ten min ei-gen on-ge, n\aar skal du
"Gm"B,2 B,>B, "Cm"C>C|"D7"D2 D z/D/ "D7"^F>G| "D7"A2 c>B "Gm"G>G|"Bb"F2 z>D "D7"C>A,|
w:les-ke min t\or-re tun-ge For he-lan, hal-van og ter-sen rett nu ven-ter
"Gm"B,2 B,>B, "Cm"C>C|"D7"D3 D C>A,|"Gm"B,2 "Cm"C>C "D"D>^F|"Gm"G2|]
w:blot p\aa \aa bli kvar-tett, nu ven-ter blot p\aa \aa bli kvar-tett.
